images/search.svg

<svg width="31" height="31" viewBox="0 0 31 31" fill="none" xmlns="http://www.w3.org/2000/svg">
<path d="M30.5256 26.4414L24.6834 20.5991C24.4197 20.3354 24.0622 20.1889 23.6872 20.1889H22.7321C24.3494 18.1204 25.3104 15.5187 25.3104 12.6884C25.3104 5.95548 19.8549 0.5 13.122 0.5C6.38907 0.5 0.933594 5.95548 0.933594 12.6884C0.933594 19.4213 6.38907 24.8768 13.122 24.8768C15.9523 24.8768 18.554 23.9158 20.6225 22.2985V23.2536C20.6225 23.6286 20.769 23.9861 21.0327 24.2498L26.8749 30.092C27.4258 30.6428 28.3165 30.6428 28.8614 30.092L30.5197 28.4337C31.0706 27.8829 31.0706 26.9922 30.5256 26.4414ZM13.122 20.1889C8.9791 20.1889 5.62144 16.8371 5.62144 12.6884C5.62144 8.54551 8.97324 5.18784 13.122 5.18784C17.2649 5.18784 20.6225 8.53965 20.6225 12.6884C20.6225 16.8313 17.2707 20.1889 13.122 20.1889Z" fill="white"/>
</svg>

<svg width="31" height="31" fill="none" xmlns="http://www.w3.org/2000/svg"><path d="M30.526 26.441 24.683 20.6a1.405 1.405 0 0 0-.996-.41h-.955a12.129 12.129 0 0 0 2.578-7.5C25.31 5.954 19.855.5 13.122.5 6.389.5.934 5.955.934 12.688c0 6.733 5.455 12.189 12.188 12.189 2.83 0 5.432-.961 7.5-2.578v.955c0 .375.147.732.41.996l5.843 5.842a1.4 1.4 0 0 0 1.986 0l1.659-1.658c.55-.551.55-1.442.006-1.993ZM13.122 20.19a7.496 7.496 0 0 1-7.5-7.5c0-4.143 3.351-7.501 7.5-7.501 4.143 0 7.5 3.352 7.5 7.5 0 4.143-3.351 7.5-7.5 7.5Z" fill="#fff"/></svg>
